X: 29874
T: O'Keefe's
R: polka
M: 2/4
K: Emajor
|:BE GB|A/B/A/G/ FG/A/|BE GB|ef/e/ dc|
BE GB|A/B/A/G/ F>e|dB cd|1 ee e2:|2 ee ee/f/||
|:ge ag|fd Be/f/|gb bg|f2 fe/f/|
ge ag|fd Bc|cB cd|1 e2 ee/f/:|2 e2 e2||

